X: 26440
T: Merrymaker, The
R: jig
M: 6/8
K: Gmajor
|:A|BAB G2 E|DB,D G2 A|BAB GAB|cBc d2 c|BAB G2 E|DB,D G2 A|BAB AGA|1 BGF G2:|2 BGF G||
|:Bc|d2 d BGB|ded BGB|cdc A=FA|cBc edc|d2 d BGB|ded BGB|cdc AGA|1 BGF G:|2 BGF G2||

